X: 1
T: Redford Cottage
M: 6/8
L: 1/8
R: jig
K: Dmaj
|: d2 e | fef ABA | B<dc BAB | ABA fed | ced cBA |
fef ABA | B<GB g3 | Bed cBc | d3 :|
|: dfg | aAa  fed | f<ag fed | gag fed | efd cBA |
[1 aAa  fed | f<ag fed | Bed cBc | d3 :|
[2 f2 A ABA | B<GB g3 | Bed cBc | d3 ||
